X: 601
T: Goin' Up Caney
B: jims roots
M:4/4
L:1/8
R: reel
Q: 1/4=100
K:Gmaj
V:1 
|:"G"G2 ed B2 ee | gfee BddB | G2 ed BddB | "D"cBAG "G"EGGG |
G2 ed Bdef | gfed B2 dB | G2 ed BddB| [1 "D"cBAG "G"E2DE:|
"G"ABAG EGGB | "Em"J[e2e] [ee]d [e2e] [ee]d | "C"eged "G"Bdde | [1 efge dc_B=B |
"D"GBAG "G"EGBd:| [2 "G"efge dBGA | "D"BGAG "G"E2 [G,2G2] ||
V:2 "D"cBAG "G"BABd|:"Em"J[e2e2
V:e2e2 
[e2e2][e2e2]| "C"eged "G"Bdde | "Em"e2 ged2 BG|
% abcbook-tune_id 6298c25dcb806129ab5ae00b


% abcbook-boost 0
% abcbook-tablature 
% abcbook-transpose 
% abcbook-lastupdated 1654178398269
% abcbook-soundfonts 
% abcbook-repeats 1


